packages/symbols/svgs/outline/lock-open-outline.svg

<svg width="24" height="24" viewBox="0 0 24 24" fill="none" xmlns="http://www.w3.org/2000/svg">
<g clip-path="url(#clip0_1150_5527)">
<path fill-rule="evenodd" clip-rule="evenodd" d="M5 12C4.44772 12 4 12.4477 4 13V21C4 21.5523 4.44772 22 5 22H19C19.5523 22 20 21.5523 20 21V13C20 12.4477 19.5523 12 19 12H5ZM2 13C2 11.3431 3.34315 10 5 10H19C20.6569 10 22 11.3431 22 13V21C22 22.6569 20.6569 24 19 24H5C3.34315 24 2 22.6569 2 21V13Z" fill="black"/>
<path fill-rule="evenodd" clip-rule="evenodd" d="M12 16C11.4477 16 11 16.4477 11 17C11 17.5523 11.4477 18 12 18C12.5523 18 13 17.5523 13 17C13 16.4477 12.5523 16 12 16ZM9 17C9 15.3431 10.3431 14 12 14C13.6569 14 15 15.3431 15 17C15 18.6569 13.6569 20 12 20C10.3431 20 9 18.6569 9 17Z" fill="black"/>
<path fill-rule="evenodd" clip-rule="evenodd" d="M12.0047 1.34518e-06H12.1103C13.6882 0.016178 15.195 0.658444 16.2995 1.78547C17.404 2.91249 18.0157 4.43204 18 6.00995C17.9945 6.56221 17.5423 7.00545 16.9901 6.99995C16.4378 6.99446 15.9946 6.54231 16 5.99005C16.0105 4.94244 15.6044 3.93358 14.8711 3.18532C14.1389 2.43822 13.1404 2.012 12.0946 2H11.99C10.9424 1.98958 9.93358 2.39561 9.18532 3.1289C8.43822 3.86106 8.012 4.85956 8 5.90541V11C8 11.5523 7.55228 12 7 12C6.44772 12 6 11.5523 6 11V5.88975C6.01618 4.31184 6.65844 2.80496 7.78547 1.70048C8.91125 0.597207 10.4287 -0.014305 12.0047 1.34518e-06Z" fill="black"/>
</g>
<defs>
<clipPath id="clip0_1150_5527">
<rect width="24" height="24" fill="white"/>
</clipPath>
</defs>
</svg>

<svg width="24" height="24" viewBox="0 0 24 24" xmlns="http://www.w3.org/2000/svg"><g clip-path="url(#a)" fill-rule="evenodd" clip-rule="evenodd"><path d="M5 12a1 1 0 0 0-1 1v8a1 1 0 0 0 1 1h14a1 1 0 0 0 1-1v-8a1 1 0 0 0-1-1H5Zm-3 1a3 3 0 0 1 3-3h14a3 3 0 0 1 3 3v8a3 3 0 0 1-3 3H5a3 3 0 0 1-3-3v-8Z"/><path d="M12 16a1 1 0 1 0 0 2 1 1 0 0 0 0-2Zm-3 1a3 3 0 1 1 6 0 3 3 0 0 1-6 0Zm3.005-17h.105A5.95 5.95 0 0 1 18 6.01a1 1 0 0 1-2-.02A3.95 3.95 0 0 0 12.095 2h-.105A3.95 3.95 0 0 0 8 5.905V11a1 1 0 1 1-2 0V5.89A5.951 5.951 0 0 1 12.005 0Z"/></g><defs><clipPath id="a"><path fill="#fff" d="M0 0h24v24H0z"/></clipPath></defs></svg>
